X:46
T:Feed Her Candy and Tell Her Lies
M:4/4
R:reel
Q:1/2=120
L:1/8
K:A
e2|"A"a2e2 fecd|"A"ecBc A2ef|"A"a2a2 g2a2|"E"b4 b2 (3efg|
"A"a2e2 fecd|"A"ecBc A2AB|"A"cBAF "E"E2F2|"A"A4 A2::
B2|"A"c4 B2c2|"A"ecBc A2AB|"A"c2c2 B2c2|"E"e4 e2 c2-|
c2c2 B2c2|"A"ecBc A2AB|"A"cBAF "E"E2F2|"A"A4 A2:|
%%newpage
